X:0374
M:6/8
L:1/8
Q:3/8=120
K:G
  DGG EGG|DGG TA2G|gdd ecc|dAc  BAG|
  DGG EGG|DGG  A2G|gdd ecc|BGG  G3:|
  Bdd dbb|dcB Tc2B|Acc caa|cBA TB2

